X: 31138
T: Paddy Fahey's
R: reel
M: 4/4
K: Cmajor
GF|(3EFG CD EFGA|_B3G c=Bcd|ecBd cBGF|DEB,D G,DGE|
{G}F2 EC DE{G}FD|GABG cBcd|ecBd cBGF|DEB,D C3D|
(3EFG CD EFGA|_BABG c3d|ecBd cBGF|DEB,D G,DGE|
{G}F2 EC DE{G}FD|GABG cBcd|ecBd cBGF|DEB,D C3E||
|:Gc c2 e^fdg|cBGA _B2 GF|DCB,G, B,CEG|c3A BGFD|
Gc c2 e^fdg|cBGA Bcdf|ecBd cBGF|1 DEB,D C2 EF:|2 DEB,D C3D||

